Sources/FrostedUI/Resources/Icons.xcassets/arrowFatUpFilled16.imageset/arrow-fat-up-filled-16.svg

<svg width="16" height="16" viewBox="0 0 16 16" fill="none" xmlns="http://www.w3.org/2000/svg" data-fui-icon="true">
  <path
    d="M2.92869 5.956C2.46353 6.49618 2.84731 7.33309 3.56017 7.33309H5.33324V13.4998C5.33324 14.1441 5.85557 14.6664 6.49991 14.6664H9.49989C10.1442 14.6664 10.6666 14.1441 10.6666 13.4998V7.33309H12.4396C13.1525 7.33309 13.5363 6.49618 13.0711 5.956L8.88396 1.0935C8.41849 0.55298 7.58129 0.552981 7.11583 1.0935L2.92869 5.956Z"
    fill="currentColor"
  />
</svg>

<svg xmlns="http://www.w3.org/2000/svg" width="16" height="16" fill="none" data-fui-icon="true" viewBox="0 0 16 16"><path fill="currentColor" d="M2.929 5.956a.833.833 0 0 0 .631 1.377h1.773V13.5c0 .644.523 1.166 1.167 1.166h3c.644 0 1.167-.522 1.167-1.166V7.333h1.773a.833.833 0 0 0 .631-1.377L8.884 1.093a1.167 1.167 0 0 0-1.768 0z"/></svg>
